X: 12102
T: Su(c)k(e)y bids me
O: 1747
R: reel
B: Johnson's "200 Country Dances" 1751
B: Rutherford's "200 Country Dances" 1756 p.25
B: The Imperial Magazine (1761),
B: RSCDS 12-10(II)
B: Gow's Repository
Z: 1997 by John Chambers <jc:trillian.mit.edu>
M: 4/4
L: 1/8
%--------------------
K: F
A \
| "F"F2CD "Bb"F2d2 | "F"cAFA "C7"GEDC \
| "F"F2CD "Bb"F2d2 | "C7"cABG "F"F3 :|
A \
|  "F"c2AB     c2f2 |  "C"egec  "G7"dfd=B \
| "C7"c2AB  "F"c2f2 | "G7"efd=B "C7"c3 |]
d \
|  "F"cfed     cBAF | "G9"A2AF  "C7"GEDC \
|  "F"F2CD "Bb"F2d2 | "C7"cABG   "F"F3 |]
%%center Book12/12102-Suckey_bids_me-1.abc

%%sep 1 1 500
%%sep 1 1 500

